!!!!SEGMENT: pl-sa--598-a-ix-78--002_anonim--la-jacinthe-contredanse.krn
!!!cenid: 18xx:641
!!!COM: Anonim
!!!COM-rismid: pe30004985
!!!CDT:
!!!CNT:
!!!OTL: La Jacinthe – Contredanse
!!!PDT:
!!!AGN: Secular; Contradance
!!!SMS-siglum: PL-SA
!!!SMS-shelfmark: 598/A IX 78
!!!SMS-shelfwork: 002 W
!!!SMS-variant:
!!!SMS-altvar:
!!!NIFC-rismid: 1001092518
!!!URL-scan: http://bc.bdsandomierz.pl/dlibra/publication/1406/edition/1374/content
!!!ONB-nifc: Str. 1, s. 3-5
**kern	**kern	**dynam
*part2	*part1	*part1
*staff2	*staff1	*
*clefF4	*clefG2	*
*k[f#c#g#d#]	*k[f#c#g#d#]	*
*E:	*E:	*
*M6/8	*M6/8	*
=1	=1	=1
!	!LO:TX:a:t=P:problem:w partii prawej ręki metrum bardziej przypomina 2/4 niż 6/8	!
!	!LO:TX:a:i:t=La Jacinthe Contre danse	!
(8E\L	4.ee\	pp
8G#\	.	.
8B\J)	.	.
*rep	*	*
(8E\L	(8dd#\L	.
8G#\	8ee\	.
8B\J)	8ff#\J)	.
=2	=2	=2
*rep	*	*
(8E\L	4.b\	.
8G#\	.	.
8B\J)	.	.
(8E\L	8b\L	.
8G#\	8cc#\	.
8B\J)	8dd#\J	.
=3	=3	=3
*rep	*	*
(8E\L	8ee\L	.
8G#\	8ee\	.
8B\J)	8ee\J	.
!	!LO:N:vis=4	!
(8E\L	8ee\	.
.	32qqff#/LLL	.
.	32qqee/	.
.	32qqdd#/	.
.	32qqee/JJJ	.
8G#\	8ff#/L	.
8B\J)	8gg#/J	.
=4	=4	=4
8BB\L	8ff#\L	.
8D#\	8bb\	.
8F#\J	8bb\J	.
4B\	8bb\L	.
.	8aa\	.
8r	8ff#\J	.
=5	=5	=5
8E\L	4.ee\	.
8G#\	.	.
8B\J	.	.
*rep	*	*
8E\L	(8dd#\L	.
8G#\	8ee\	.
8B\J	8ff#\J)	.
=6	=6	=6
*rep	*	*
8E\L	4.b\	.
8G#\	.	.
8B\J	.	.
8E\L	8b\L	.
8G#\	8cc#\	.
8B\J	8dd#\J	.
=7	=7	=7
2.ryy	4.ee\	.
.	8ee\L	.
.	8ff#\	.
.	8dd#\J	.
=8	=8	=8
(8E\L	4ee\	.
8G#\	.	.
8B\J)	(16gg#\LL	.
.	16bb\JJ)	.
4E\	4eee\	.
8r	8r	.
!LO:TX:a:t=[segno]:problem:znak segno na kresce	!LO:TX:a:t=[segno]:problem:znak segno na kresce	!
=9||	=9||	=9||
!LO:CL:ed	!	!
*clefG2	*	*
8B/L	4.ff#\	pp
8f# 8d#/	.	.
8f#J 8d#/	.	.
*rep	*	*
8B/L	8aa\L	.
8f# 8d#/	8gg#\	.
8f#J 8d#/	8ff#\J	.
*Xrep	*	*
=10	=10	=10
8B/L	4.gg#\	.
8g# 8e/	.	.
8g#J 8e/	.	.
*rep	*	*
8B/L	8bb\L	.
8g# 8e/	8gg#\	.
8g#J 8e/	8ee\J	.
*Xrep	*	*
!!LO:LB:g=original
=11	=11	=11
*clefG2	*	*
8B/L	4dd#\	.
8a 8f#/	.	.
8aJ 8f#/	8dd#\	.
8B/L	4ee\	.
8g# 8e/	.	.
8g#J 8e/	8ee\	.
=12	=12	=12
*rep	*	*
!	!LO:N:vis=4	!
8B/L	4.gg#\	.
8g# 8e/	.	.
8g#J 8e/	.	.
*Xrep	*	*
.	(16qqaa/LL	.
.	16qqgg#/JJ	.
4f# 4d# 4B/	4ff#\)	.
8r	8r	.
=13	=13	=13
16B/LL	4.ff#\	.
16f#/	.	.
16d#/	.	.
16f#/	.	.
16d#/	.	.
16f#/JJ	.	.
*rep	*	*
16B/LL	8aa\L	.
16f#/	.	.
16d#/	8gg#\	.
16f#/	.	.
16d#/	8ff#\J	.
16f#/JJ	.	.
*Xrep	*	*
=14	=14	=14
*rep	*	*
16B/LL	8gg#\L	.
!LO:SIC:v:s=16g#	!	!
16f#/	.	.
.	16qqaa/LL	.
!LO:SIC:v:s=16e	!	!
.	16qqgg#/JJ	.
16d#/	8ff#\	.
!LO:SIC:v:s=16g#	!	!
16f#/	.	.
!LO:SIC:v:s=16e	!	!
16d#/	8gg#\J	.
!LO:SIC:v:s=16g#	!	!
16f#/JJ	.	.
*Xrep	*	*
*rep	*	*
16B/LL	8bb\L	.
!LO:SIC:v:s=16g#	!	!
16f#/	.	.
!LO:SIC:v:s=16e	!	!
16d#/	8gg#\	.
!LO:SIC:v:s=16g#	!	!
16f#/	.	.
!LO:SIC:v:s=16e	!	!
16d#/	8ee\J	.
!LO:SIC:v:s=16g#	!	!
16f#/JJ	.	.
*Xrep	*	*
*clefF4	*	*
=15	=15	=15
16F#\LL	8dd#\L	.
16d#\	.	.
16B\	8gg#\	.
16d#\	.	.
16B\	8ff#\J	.
16d#\JJ	.	.
*rep	*	*
16F#\LL	8ee\L	.
16d#\	.	.
16B\	8dd#\	.
16d#\	.	.
16B\	8cc#\J	.
16d#\JJ	.	.
*Xrep	*	*
=16	=16	=16
4.e 4.B\	4.cc#\	.
4d# 4B\	4b\	.
8r	8r	.
*clefG2	*	*
=17	=17	=17
8B/L	4.ff#\	p
8f# 8d#/	.	.
8f#J 8d#/	.	.
.	32qqgg#/LLL	.
.	32qqff#/	.
.	32qqee/	.
*rep	*	*
.	32qqff#/JJJ	.
8B/L	8aa\L	.
8f# 8d#/	8gg#\	.
8f#J 8d#/	8ff#\J	.
*Xrep	*	*
=18	=18	=18
8B/L	4.gg#\	.
8g# 8e/	.	.
8g#J 8e/	.	.
.	(16qqaa/LL	.
.	16qqgg#/	.
*rep	*	*
.	16qqff#/JJ)	.
8B/L	8bb\L	.
8g# 8e/	8gg#\	.
8g#J 8e/	8ee\J	.
*Xrep	*	*
=19	=19	=19
8B/L	4dd#\	.
8a 8f#/	.	.
8aJ 8f#/	8dd#\	.
8B/L	4ee\	.
8g# 8e/	.	.
8g#J 8e/	8ee\	.
=20	=20	=20
*rep	*	*
8B/L	4.gg#\	.
8g# 8e/	.	.
8g#J 8e/	.	.
*Xrep	*	*
.	16qqaa/LL	.
.	16qqgg#/JJ	.
4f# 4d# 4B/	4ff#\	.
8r	8r	.
*clefF4	*	*
=21	=21	=21
8F#\L	4.ff#\	.
8e 8c#\	.	.
8eJ 8c#\	.	.
*rep	*	*
8F#\L	8aa#X\L	.
8e 8c#\	8gg#\	.
8eJ 8c#\	8ff#\J	.
*Xrep	*	*
=22	=22	=22
8G#\L	4.bb\	.
8d# 8B\	.	.
8d#J 8B\	.	.
8E\L	8bb\L	.
8c# 8G#\	8gg#\	.
8c#J 8G#\	8ee\J	.
=23	=23	=23
8F#\L	8dd#\L	.
8d# 8B\	8gg#\	.
8d#J 8B\	8ff#\J	.
8F#\L	8ee\L	.
8e 8A#X\	8dd#\	.
8eJ 8A#\	8cc#\J	.
!!LO:LB:g=original
=24	=24	=24
!LO:TX:a:t=P:problem:uszkodzony papier - brak partii lewej ręki lub nieczytelna do końca utworu	!	!
2.ryy	8b\L	.
.	8a#X\	.
.	8b\J	.
.	8cc#\L	.
!	!LO:SIC:v:s=8ddn	!
.	8dd#\	.
.	8dd#X\J	.
=25	=25	=25
2.ryy	4.ee\	ff
.	8dd#\L	.
.	8ee\	.
.	8ff#\J	.
=26	=26	=26
2.ryy	[4.b\	.
.	8b\L]	.
.	8cc#\	.
.	8dd#\J	.
=27	=27	=27
2.ryy	8ee\L	.
.	8ee\	.
.	8ee\J	.
.	8ee\L	.
.	32qqff#/LLL	.
.	32qqee/	.
.	32qqdd#/	.
.	32qqee/JJJ	.
.	8ff#\	.
.	8gg#\J	.
=28	=28	=28
2.ryy	8ff#\L	.
.	8bb\	.
.	8bb\J	.
.	8bb\L	.
.	8aa\	.
.	8ff#\J	.
=29	=29	=29
2.ryy	4.ee\	.
.	8dd#\L	.
.	8ee\	.
.	8ff#\J	.
=30	=30	=30
2.ryy	[4.b\	.
.	8b\L]	.
.	8cc#\	.
.	8dd#\J	.
=31	=31	=31
2.ryy	8ee\L	.
.	8ee\	.
.	8ee\J	.
.	8ee\L	.
.	(32qqff#/LLL	.
.	32qqee/	.
.	32qqdd#/	.
.	32qqee/JJJ)	.
.	8ff#\	.
!	!LO:TX:a:t=P:problem:uszkodzony papier,brak 2 nut	!
.	8dd#\Jyy	.
=32	=32	=32
2.ryy	8ee\Lyy	.
.	(8gg#\	.
.	8bb\J	.
.	4eee\)	.
.	8r	.
==	==	==
*-	*-	*-
!!!system-decoration: {s1,s2}
!!!ENC: Marta Lawrence
!!!END: 2020-12-14
!!!ENC: Andrzej Borzym
!!!END: 2020-06-20
